src/assets/email.svg

<?xml version="1.0" encoding="UTF-8" standalone="no"?>
<svg
   xmlns:dc="http://purl.org/dc/elements/1.1/"
   xmlns:cc="http://creativecommons.org/ns#"
   xmlns:rdf="http://www.w3.org/1999/02/22-rdf-syntax-ns#"
   xmlns:svg="http://www.w3.org/2000/svg"
   xmlns="http://www.w3.org/2000/svg"
   version="1.1"
   id="svg919"
   width="90.708664"
   height="90.705551"
   viewBox="0 0 90.708664 90.705553">
  <metadata
     id="metadata925">
    <rdf:RDF>
      <cc:Work
         rdf:about="">
        <dc:format>image/svg+xml</dc:format>
        <dc:type
           rdf:resource="http://purl.org/dc/dcmitype/StillImage" />
        <dc:title></dc:title>
      </cc:Work>
    </rdf:RDF>
  </metadata>
  <defs
     id="defs923" />
  <path
     style="fill:#000000;stroke-width:0.09255504"
     d="M 45.155113,1.7128925e-4 C 38.721392,0.01807129 32.45663,1.4175713 26.246635,4.2134713 24.798591,4.8653713 20.56176,7.3115713 19.273146,8.2395713 12.933641,12.805371 8.2185625,18.270171 4.8346974,24.974071 3.5009039,27.616471 2.5677677,30.062471 1.6946955,33.204071 0.2468428,38.414071 -0.25050517,43.246171 0.11561084,48.546171 0.49107583,53.981571 1.9428488,59.597471 4.2264915,64.448071 4.5093614,65.048871 4.8206507,65.710871 4.9182138,65.919071 5.3033666,66.740971 7.7893832,70.812171 8.5128111,71.805771 14.037066,79.393471 21.303734,84.880071 30.009621,88.036571 31.496962,88.575871 35.149429,89.571071 36.746254,89.872171 40.749921,90.627071 44.539069,90.865671 48.335924,90.601971 60.34755,89.767871 71.398162,84.341271 79.310902,75.391271 83.143957,71.055771 85.949909,66.338171 87.987804,60.802671 88.565459,59.233571 89.591612,55.488171 89.901903,53.816271 91.666395,44.308671 90.542365,35.261071 86.472031,26.208071 85.851033,24.826971 83.378939,20.544871 82.492389,19.314771 76.998951,11.692371 70.235217,6.4072713 61.684864,3.0561713 59.795547,2.3156713 55.29929,1.0447713 53.403448,0.71537129 50.618146,0.23147129 47.871574,-0.00732871 45.155113,1.7128925e-4 Z M 21.580289,25.950371 C 22.085853,25.940371 22.656347,26.048871 23.128597,25.977871 H 69.993121 C 70.007872,26.607771 68.882932,27.084371 68.44685,27.653471 60.806947,34.556871 53.162198,41.454871 45.516566,48.351871 44.506077,47.767271 43.669815,46.730171 42.726221,45.971671 L 42.628605,45.883571 42.553901,45.816071 C 35.297843,39.260571 28.044156,32.702371 20.775494,26.160971 20.99691,26.005071 21.27695,25.956371 21.580289,25.950371 Z M 18.79008,27.892771 C 19.550635,27.914471 19.967115,28.828871 20.586498,29.216771 25.828183,33.973271 31.070496,38.729571 36.349686,43.444471 36.049351,44.267471 35.136213,44.847271 34.591908,45.573471 29.415315,51.184671 24.243776,56.800771 19.051475,62.397471 18.442368,62.475071 18.962534,61.020471 18.79008,60.505671 V 45.185571 Z M 71.794015,27.892771 C 72.478973,27.965971 71.909732,29.293371 72.095816,29.865471 V 62.461571 C 71.382876,62.152371 70.871417,61.212471 70.253029,60.675971 65.00477,55.014171 59.781381,49.329471 54.535394,43.665471 55.05956,42.770271 56.104401,42.180471 56.833723,41.405671 61.814889,36.895171 66.814926,32.405571 71.794015,27.892771 Z M 52.657901,45.227671 C 57.047141,49.817371 61.327092,54.612471 65.678876,59.277071 67.197776,60.888271 68.649153,62.564271 70.214524,64.130671 70.197565,64.886771 68.822478,64.284771 68.241854,64.477271 H 20.671505 V 64.345671 64.327671 C 21.146179,63.458071 22.075465,62.766671 22.720912,61.963971 27.915014,56.420371 33.002891,50.749771 38.225823,45.250571 39.624396,46.298171 40.959923,47.685971 42.334128,48.864971 43.283948,49.645771 44.149753,50.659571 45.173281,51.274571 46.137006,51.480171 46.62685,50.430171 47.337116,49.964371 49.132993,48.417171 50.854469,46.731471 52.657901,45.227671 Z"
     id="path1472" />
</svg>

<svg xmlns="http://www.w3.org/2000/svg" width="90.709" height="90.706"><path style="fill:#000;stroke-width:.09255504" d="M45.155 0c-6.434.018-12.698 1.418-18.908 4.213-1.448.652-5.685 3.099-6.974 4.027-6.34 4.565-11.054 10.03-14.438 16.734-1.334 2.642-2.267 5.088-3.14 8.23C.247 38.414-.251 43.246.115 48.546c.376 5.436 1.828 11.051 4.111 15.902l.692 1.471c.385.822 2.871 4.893 3.595 5.887 5.524 7.587 12.79 13.074 21.497 16.23 1.487.54 5.14 1.535 6.736 1.836 4.004.755 7.793.994 11.59.73 12.012-.834 23.062-6.26 30.975-15.21 3.833-4.336 6.639-9.054 8.677-14.59.577-1.568 1.604-5.314 1.914-6.986 1.764-9.507.64-18.555-3.43-27.608-.621-1.381-3.093-5.663-3.98-6.893C77 11.692 70.235 6.407 61.685 3.056c-1.89-.74-6.386-2.011-8.282-2.34A47.332 47.332 0 0 0 45.155 0zM21.58 25.95c.506-.01 1.076.099 1.549.028h46.864c.015.63-1.11 1.106-1.546 1.675-7.64 6.904-15.285 13.802-22.93 20.699-1.01-.585-1.847-1.622-2.79-2.38l-.098-.088-.075-.068c-7.256-6.555-14.51-13.114-21.779-19.655.222-.156.502-.205.805-.21zm-2.79 1.943c.76.021 1.177.936 1.796 1.324 5.242 4.756 10.484 9.513 15.764 14.227-.3.823-1.214 1.403-1.758 2.13-5.177 5.61-10.348 11.227-15.54 16.823-.61.078-.09-1.377-.262-1.891v-15.32zm53.004 0c.685.073.116 1.4.302 1.972v32.597c-.713-.31-1.225-1.25-1.843-1.786-5.248-5.662-10.472-11.347-15.718-17.01.525-.896 1.57-1.486 2.299-2.26 4.98-4.51 9.98-9 14.96-13.513zM52.658 45.228c4.39 4.59 8.67 9.384 13.02 14.05 1.52 1.61 2.971 3.286 4.537 4.853-.017.756-1.393.154-1.973.346h-47.57v-.149c.474-.87 1.403-1.561 2.049-2.364 5.194-5.544 10.282-11.214 15.505-16.713 1.398 1.047 2.734 2.435 4.108 3.614.95.78 1.816 1.795 2.84 2.41.963.205 1.453-.845 2.163-1.31 1.796-1.548 3.517-3.234 5.32-4.737z"/></svg>
